X: 1
T: Freddie's Reel #2   (D)
C: John Morris Rankin
N: Originally in E; this version is for key-limited instruments.
R: reel
S: https://thesession.org/tunes/9424
Z: 2020 edited by John Chambers <jc:trillian.mit.edu>
M: C|
L: 1/8
K: G
[| G2BG ABGA | G2de dBAB | d2eg a2ge | d2eg abag |
|  e2d2 B2GB | G2BG ABGE | GABd e2zg | dBAB G3e |]
[| d2BG ABGA | G2de dBAB | d2eg a2ge | d2eg abag |
|  e2d2 B2GB | G2BG ABGE | GABd e2zb | agab g3a |]
|: b2ag a2ba | g2ec d2Bc | d2eg a2ba | g2ed BAAB |
|  G2bg a2ba | g2ec d2ze | dGeG d3b  | agab [1 g2ga :|[2 g4 |]
